X:14341
T:Road to Lisdoonvarna
M:12/8
L:1/8
Q:100
R:Slide
K:D
|:D|E2BB2AB2cd2A|F2G AGF D2E FED|
|E2BB2AB2cd2d|cdcB2AB2EE2:|
|:e2f gfed2B Bcd|c2A ABcd2BB3|
|e2f gfed2B Bcd|cdcB2AB2EE3:|
